icons/animal_chicken_fill.svg

<svg width="48" height="48" viewBox="0 0 48 48" fill="none" xmlns="http://www.w3.org/2000/svg">
<path fill-rule="evenodd" clip-rule="evenodd" d="M18.5 7.41417C18.5 5.63235 16.3457 4.74002 15.0857 5.99995L6.49995 14.5857C5.24002 15.8457 6.13236 18 7.91417 18H11.3825C11.4083 18.8059 11.316 19.6147 11.1057 20.4L10.3447 23.2421C9.46287 26.5353 9.21035 30.1543 11.0952 32.9951C13.8603 37.1624 18.6011 39.9316 24 39.9987V42H19V44H28.5V42H26V39.8988C29.344 39.5205 32.3681 38.1005 34.7326 35.9748C33.1167 36.6352 31.3406 37 29.4781 37C22.0715 37 15.9999 31.2161 15.9999 24C15.9999 23.4477 16.4477 23 16.9999 23C17.5522 23 17.9999 23.4477 17.9999 24C17.9999 30.0386 23.1017 35 29.4781 35C33.0029 35 36.1477 33.479 38.2498 31.0947C38.3154 31.0203 38.3896 30.958 38.4695 30.9079C38.9704 29.8179 39.3474 28.6604 39.5828 27.453C39.9516 25.5613 40.4969 23.6687 41.6612 22.1328C42.1436 21.4964 41.6012 20.5973 40.8133 20.7272L27.6985 22.8899C25.6033 23.2354 23.5184 22.2198 22.4989 20.357L19.1785 14.2903L21.1985 12.4948C22.573 11.273 21.7088 8.99995 19.8698 8.99995H18.5V7.41417ZM18.1933 12.4901L19.8698 11H18.5C17.3954 11 16.5 10.1045 16.5 8.99995L16.5 7.41417L13.8563 10.0578C14.0747 10.0198 14.3001 9.99995 14.5312 9.99995C15.9488 9.99995 17.2536 10.7733 17.9343 12.0169L18.1933 12.4901ZM10.7079 13.2062L7.91417 16H11.0727L10.7755 14.8516C10.6303 14.2907 10.6149 13.7329 10.7079 13.2062ZM14 14C14.5523 14 15 13.5522 15 13C15 12.4477 14.5523 12 14 12C13.4477 12 13 12.4477 13 13C13 13.5522 13.4477 14 14 14Z" fill="black"/>
</svg>

<svg
  xmlns="http://www.w3.org/2000/svg"
  width="24"
  height="24"
  viewBox="0 0 24 24"
  fill="none"
  stroke="currentColor"
  stroke-width="2"
  stroke-linecap="round"
  stroke-linejoin="round"
>
  <path
    fill-rule="evenodd"
    d="M18.5 7.414c0-1.782-2.154-2.674-3.414-1.414L6.5 14.586C5.24 15.846 6.132 18 7.914 18h3.469a8.3 8.3 0 0 1-.277 2.4l-.761 2.842c-.882 3.293-1.135 6.912.75 9.753A15.7 15.7 0 0 0 24 40V42h-5v2h9.5v-2H26v-2.101a15.7 15.7 0 0 0 8.733-3.924A13.9 13.9 0 0 1 29.478 37C22.071 37 16 31.216 16 24a1 1 0 0 1 2 0c0 6.039 5.102 11 11.478 11 3.525 0 6.67-1.521 8.772-3.905q.099-.112.22-.187c.5-1.09.877-2.248 1.113-3.455.369-1.892.914-3.784 2.078-5.32.483-.637-.06-1.536-.848-1.406L27.698 22.89a5 5 0 0 1-5.2-2.533l-3.32-6.067 2.02-1.795C22.574 11.273 21.709 9 19.87 9H18.5zm-.307 5.076L19.87 11H18.5a2 2 0 0 1-2-2V7.414l-2.644 2.644q.329-.058.675-.058a3.88 3.88 0 0 1 3.403 2.017zm-7.485.716L7.914 16h3.159l-.298-1.148a3.9 3.9 0 0 1-.067-1.646M14 14a1 1 0 1 0 0-2 1 1 0 0 0 0 2"
    clip-rule="evenodd"
  />
</svg>
